assets/img/braze_icons/folder-lock.svg

<svg fill="none" height="24" viewBox="0 0 24 24" width="24" xmlns="http://www.w3.org/2000/svg"><g fill="#801ed7"><path d="m12 11c-.4142 0-.75.3358-.75.75v.75h1.5v-.75c0-.4142-.3358-.75-.75-.75z"/><path d="m9.5 15.7c0 .28 0 .42.0545.527.04793.0941.12442.1706.2185.2185.10696.0545.247.0545.527.0545h3.4c.28 0 .42 0 .527-.0545.0941-.0479.1706-.1244.2185-.2185.0545-.107.0545-.247.0545-.527v-.4c0-.28 0-.42-.0545-.527-.0479-.0941-.1244-.1706-.2185-.2185-.107-.0545-.247-.0545-.527-.0545h-3.4c-.28 0-.42004 0-.527.0545-.09408.0479-.17057.1244-.2185.2185-.0545.107-.0545.247-.0545.527z"/><path clip-rule="evenodd" d="m1 6.16167v10.07963c-.000011.805-.00002 1.4693.0442 2.0105.04592.5621.14449 1.0788.39178 1.5642.38349.7526.99541 1.3645 1.74806 1.748.48534.2473 1.00204.3459 1.56414.3918.54119.0442 1.20556.0442 2.01052.0442h10.4826c.805 0 1.4693 0 2.0105-.0442.5621-.0459 1.0788-.1445 1.5642-.3918.7526-.3835 1.3645-.9954 1.748-1.748.2473-.4854.3459-1.0021.3918-1.5642.0442-.5412.0442-1.2055.0442-2.0105v-4.4826c0-.805 0-1.4693-.0442-2.01053-.0459-.56209-.1445-1.0788-.3918-1.56413-.3835-.75265-.9954-1.36457-1.748-1.74806-.4854-.2473-1.0021-.34586-1.5642-.39179-.5412-.04421-1.2055-.0442-2.0105-.04419h-3.6234l-.8945-1.78936c-.2648-.53125-.4976-.99843-.8603-1.35368-.3177-.31115-.7006-.54778-1.121-.69278-.4799-.16555-1.00188-.16486-1.59544-.16407l-3.9852.0001c-.52715-.00001-.98191-.00003-1.35648.03057-.39535.03231-.78857.10362-1.16695.29642-.56448.28762-1.02343.74656-1.31105 1.31104-.19279.37838-.26411.7716-.29641 1.16695-.030599.37455-.030585.82937-.03057 1.35648zm9.09-2.1068c-.12062-.04161-.27729-.05465-1.06771-.05465h-3.82229c-.57655 0-.94882.00077-1.23216.02392-.27166.0222-.37238.05988-.42183.08507-.18816.09587-.34114.24885-.43701.43701-.0252.04945-.06287.15017-.08507.42183-.02035.24911-.02341.56696-.02385 1.03195h8.38182l-.3919-.78365c-.3534-.70697-.4352-.84127-.5263-.93055-.1059-.10372-.2336-.1826-.3737-.23093zm-.84 7.69513c0-1.5188 1.2312-2.75 2.75-2.75s2.75 1.2312 2.75 2.75v.778c.2025.024.4296.0736.658.19.3763.1917.6823.4977.874.874.1383.2714.1824.5412.2011.7698.017.2081.0169.4539.0169.7063v.8638c0 .2524.0001.4982-.0169.7063-.0187.2286-.0628.4984-.2011.7698-.1917.3763-.4977.6823-.874.874-.2714.1383-.5412.1824-.7698.2011-.2081.017-.4539.0169-.7063.0169h-3.8638c-.25237 0-.49817.0001-.70632-.0169-.2286-.0187-.49833-.0628-.76976-.2011-.37632-.1917-.68228-.4977-.87403-.874-.13829-.2714-.18236-.5412-.20104-.7698-.017-.2081-.01698-.4539-.01695-.7063v-.8638c-.00003-.2524-.00005-.4982.01695-.7063.01868-.2286.06275-.4984.20104-.7698.19175-.3763.49771-.6823.87403-.874.22836-.1164.45551-.166.65798-.19z" fill-rule="evenodd"/></g></svg>

<svg width="24" height="24" viewBox="0 0 24 24" fill="none" xmlns="http://www.w3.org/2000/svg">
<path d="M12 11C11.5858 11 11.25 11.3358 11.25 11.75V12.5H12.75V11.75C12.75 11.3358 12.4142 11 12 11Z" fill="#801ED7"/>
<path d="M9.5 15.7C9.5 15.98 9.5 16.12 9.5545 16.227C9.60243 16.3211 9.67892 16.3976 9.773 16.4455C9.87996 16.5 10.02 16.5 10.3 16.5H13.7C13.98 16.5 14.12 16.5 14.227 16.4455C14.3211 16.3976 14.3976 16.3211 14.4455 16.227C14.5 16.12 14.5 15.98 14.5 15.7V15.3C14.5 15.02 14.5 14.88 14.4455 14.773C14.3976 14.6789 14.3211 14.6024 14.227 14.5545C14.12 14.5 13.98 14.5 13.7 14.5H10.3C10.02 14.5 9.87996 14.5 9.773 14.5545C9.67892 14.6024 9.60243 14.6789 9.5545 14.773C9.5 14.88 9.5 15.02 9.5 15.3V15.7Z" fill="#801ED7"/>
<path fill-rule="evenodd" clip-rule="evenodd" d="M1 6.16167V16.2413C0.999989 17.0463 0.99998 17.7106 1.0442 18.2518C1.09012 18.8139 1.18869 19.3306 1.43598 19.816C1.81947 20.5686 2.43139 21.1805 3.18404 21.564C3.66938 21.8113 4.18608 21.9099 4.74818 21.9558C5.28937 22 5.95374 22 6.7587 22H17.2413C18.0463 22 18.7106 22 19.2518 21.9558C19.8139 21.9099 20.3306 21.8113 20.816 21.564C21.5686 21.1805 22.1805 20.5686 22.564 19.816C22.8113 19.3306 22.9099 18.8139 22.9558 18.2518C23 17.7106 23 17.0463 23 16.2413V11.7587C23 10.9537 23 10.2894 22.9558 9.74817C22.9099 9.18608 22.8113 8.66937 22.564 8.18404C22.1805 7.43139 21.5686 6.81947 20.816 6.43598C20.3306 6.18868 19.8139 6.09012 19.2518 6.04419C18.7106 5.99998 18.0463 5.99999 17.2413 6H13.6179L12.7234 4.21064C12.4586 3.67939 12.2258 3.21221 11.8631 2.85696C11.5454 2.54581 11.1625 2.30918 10.7421 2.16418C10.2622 1.99863 9.74022 1.99932 9.14666 2.00011L5.16146 2.00021C4.63431 2.0002 4.17955 2.00018 3.80498 2.03078C3.40963 2.06309 3.01641 2.1344 2.63803 2.3272C2.07355 2.61482 1.6146 3.07376 1.32698 3.63824C1.13419 4.01662 1.06287 4.40984 1.03057 4.80519C0.999971 5.17974 0.999985 5.63456 1 6.16167ZM10.09 4.05487C9.96938 4.01326 9.81271 4.00022 9.02229 4.00022H5.2C4.62345 4.00022 4.25118 4.00099 3.96784 4.02414C3.69618 4.04634 3.59546 4.08402 3.54601 4.10921C3.35785 4.20508 3.20487 4.35806 3.109 4.54622C3.0838 4.59567 3.04613 4.69639 3.02393 4.96805C3.00358 5.21716 3.00052 5.53501 3.00008 6L11.3819 6L10.99 5.21635C10.6366 4.50938 10.5548 4.37508 10.4637 4.2858C10.3578 4.18208 10.2301 4.1032 10.09 4.05487ZM9.25 11.75C9.25 10.2312 10.4812 9 12 9C13.5188 9 14.75 10.2312 14.75 11.75V12.528C14.9525 12.552 15.1796 12.6016 15.408 12.718C15.7843 12.9097 16.0903 13.2157 16.282 13.592C16.4203 13.8634 16.4644 14.1332 16.4831 14.3618C16.5001 14.5699 16.5 14.8157 16.5 15.0681V15.9319C16.5 16.1843 16.5001 16.4301 16.4831 16.6382C16.4644 16.8668 16.4203 17.1366 16.282 17.408C16.0903 17.7843 15.7843 18.0903 15.408 18.282C15.1366 18.4203 14.8668 18.4644 14.6382 18.4831C14.4301 18.5001 14.1843 18.5 13.9319 18.5H10.0681C9.81573 18.5 9.56993 18.5001 9.36178 18.4831C9.13318 18.4644 8.86345 18.4203 8.59202 18.282C8.2157 18.0903 7.90974 17.7843 7.71799 17.408C7.5797 17.1366 7.53563 16.8668 7.51695 16.6382C7.49995 16.4301 7.49997 16.1843 7.5 15.9319V15.0681C7.49997 14.8157 7.49995 14.5699 7.51695 14.3618C7.53563 14.1332 7.5797 13.8634 7.71799 13.592C7.90974 13.2157 8.2157 12.9097 8.59202 12.718C8.82038 12.6016 9.04753 12.552 9.25 12.528V11.75Z" fill="#801ED7"/>
</svg>
